X: 87
T: Ge jiucai
%%abc-version 2.0
%%abcx-abcm2ps-target-version 5.9.1 (29 Sep 2008)
%%abc-creator hum2abc beta
%%abcx-conversion-date 2013/10/02 07:52:29
%%abc-edited-by Helmut Schaffrath
%%humdrum-veritas 1977539260
%%humdrum-veritas-data 2815421430
%%continueall 1
%%barnumbers 0
L: 1/8
M: 2/4
K: D
A A G E [I:setbarnb 1]| 
A B/ A/ G E | 
A2D2 | 
E> F E E | 
A> E A A | 
E F E D/ D/ | 
B E, D B, | 
A, G,A,2 | 
G> E D =C | 
B, E D B, | 
A, G,A,2 |]  



